X: 21141
T: Kate And Rose's
R: reel
M: 4/4
K: Gmajor
FD (3DDD AD (3DDD|d2de dcAG|FD (3DDD AD (3DDD|EDCD EGcG|
FD (3DDD AD (3DDD|d2de dcAG|F2cF dFcF|1 E2EF EDCE:|E2EF EDC2||
fd (3ddd fdad|f2fg fede|fd (3ddd fdad|cBAB cBA2|
fd (3ddd fdad|f2fg fedB|c2gc acgc|B2Bc BAGd:|

